src/distro-icons/fedora.svg

<svg width="512" height="512" fill="none" xmlns="http://www.w3.org/2000/svg">
<circle cx="256" cy="256" r="256" fill="#fff"/>
<path d="M511.282 256.012C511.282 115.02 396.986.721 255.996.721 115.069.72.818 114.924.718 255.832v197.553c.075 31.994 26.024 57.894 58.038 57.894H256.1c140.943-.055 255.182-114.313 255.182-255.267Z" fill="#294172"/>
<path d="M147.898 272.487h91.747v91.747c0 50.644-41.103 91.747-91.747 91.747-50.645 0-91.748-41.103-91.748-91.747s41.103-91.747 91.748-91.747Z" stroke="#3C6EB4" stroke-width="29.21"/>
<path d="M267.712 244.55v119.556c0 66.165-53.646 119.811-119.813 119.811-10.039 0-17.175-1.133-26.468-3.562-13.55-3.546-24.623-14.655-24.627-27.577 0-15.619 11.337-26.981 28.285-26.981 8.066 0 10.993 1.549 22.81 1.549 34.884 0 63.18-28.256 63.241-63.14v-54.952c0-4.924-4.001-8.914-8.933-8.914l-41.546-.008c-15.479 0-27.985-12.346-27.985-27.868-.008-15.618 12.635-27.914 28.281-27.914" fill="#fff"/>
</svg>

<svg width="512" height="512" viewBox="0 0 512 512" fill="none" xmlns="http://www.w3.org/2000/svg">
<circle cx="256" cy="256" r="256" fill="white"/>
<path d="M511.282 256.012C511.282 115.02 396.986 0.720693 255.996 0.720693C115.069 0.720693 0.817635 114.924 0.717651 255.832V453.385C0.793493 485.379 26.7418 511.279 58.7559 511.279H256.1C397.043 511.224 511.282 396.966 511.282 256.012Z" fill="#294172"/>
<path d="M147.898 272.487H239.645V364.234C239.645 414.878 198.542 455.981 147.898 455.981C97.253 455.981 56.1503 414.878 56.1503 364.234C56.1503 313.59 97.253 272.487 147.898 272.487Z" stroke="#3C6EB4" stroke-width="29.21"/>
<path d="M267.712 244.55V364.106C267.712 430.271 214.066 483.917 147.899 483.917C137.86 483.917 130.724 482.784 121.431 480.355C107.881 476.809 96.8082 465.7 96.8036 452.778C96.8036 437.159 108.141 425.797 125.089 425.797C133.155 425.797 136.082 427.346 147.899 427.346C182.783 427.346 211.079 399.09 211.14 364.206V309.254C211.14 304.33 207.139 300.34 202.207 300.34L160.661 300.332C145.182 300.332 132.676 287.986 132.676 272.464C132.668 256.846 145.311 244.55 160.957 244.55" fill="white"/>
<path d="M467.233 467.098L467.233 456.491L462.384 467.609L457.664 456.491L457.665 467.098H454.945V450.348H457.797L462.464 461.049L467.061 450.348H469.948V467.098H467.233ZM447.418 453.153V467.098H444.576V453.153H439.811V450.348H452.178V453.153" fill="#3C6EB4"/>
<circle cx="434.5" cy="434.5" r="77.5" fill="white"/>
<path d="M425.077 383.035L389.695 383.035C388.859 383.035 388.182 383.713 388.182 384.549C388.182 385.385 388.859 386.063 389.695 386.063L422.466 386.063C422.7 385.715 422.942 385.369 423.192 385.024L424.3 383.494L425.077 383.035Z" fill="#E91F63"/>
<path d="M414.021 402.627C413.758 403.326 413.481 404.062 413.201 404.832L375.77 404.832C374.934 404.832 374.256 404.154 374.256 403.318C374.256 402.482 374.934 401.805 375.77 401.805L414.365 401.805L414.256 402.001L414.021 402.627Z" fill="#E91F63" fill-opacity="0.7"/>
<path d="M409.981 420.271L369.715 420.271C368.879 420.271 368.201 420.949 368.201 421.785C368.201 422.621 368.879 423.299 369.715 423.299L409.566 423.299C409.574 423.255 409.583 423.211 409.591 423.168L409.6 423.123C409.788 422.168 409.911 421.53 409.988 421.029C409.983 420.775 409.98 420.523 409.981 420.271Z" fill="#E91F63" fill-opacity="0.3"/>
<path d="M411.238 439.041L368.201 439.041C367.365 439.041 366.688 439.719 366.688 440.555C366.688 441.391 367.365 442.068 368.201 442.068L413.542 442.068C413.244 441.681 412.941 441.299 412.632 440.922C412.101 440.306 411.639 439.677 411.238 439.041Z" fill="#E91F63"/>
<path d="M422.95 457.508L372.742 457.508C371.906 457.508 371.229 458.186 371.229 459.021C371.229 459.857 371.906 460.535 372.742 460.535L424.569 460.535C424.27 459.958 423.969 459.383 423.665 458.809C423.424 458.372 423.186 457.938 422.95 457.508Z" fill="#E91F63" fill-opacity="0.6"/>
<path d="M431.847 476.277L384.852 476.277C384.016 476.277 383.338 476.955 383.338 477.791C383.338 478.627 384.016 479.305 384.852 479.305L433.073 479.305C432.672 478.292 432.263 477.283 431.847 476.277Z" fill="#E91F63"/>
<path d="M448.208 374.214C447.614 376.864 443.434 373.631 442.641 376.63C437.96 373.333 442.354 380.198 441.734 380.632L441.696 380.625L441.324 380.512C441.094 380.375 440.764 380.15 440.296 379.717C436.146 381.868 434.892 387.786 430.546 390.353C427.094 395.117 425.379 400.679 422.521 405.826C420.618 410.883 418.819 415.96 419.089 421.445C418.641 425.778 416.273 431.325 419.566 435.056C424.389 440.907 427.989 447.831 431.655 454.491C437.386 465.283 442.074 476.628 445.996 488.138C446.898 485.638 446.326 493.584 447.949 494.447C448.115 490.45 448.554 484.132 449.121 479.267C449.667 466.363 445.729 453.84 445.85 440.978C445.881 440.441 445.903 439.887 445.935 439.34L446.241 437.784L446.052 437.746C446.498 431.468 447.533 424.774 452.918 420.909C458.369 417.22 465.37 417.399 471.458 415.288C472.815 414.809 474.207 414.478 475.589 414.321C475.601 414.32 475.616 414.33 475.627 414.329C479.652 413.905 483.694 414.739 487.508 416.156C487.564 416.177 487.634 416.21 487.69 416.231C488.037 416.362 488.413 416.499 488.755 416.638C491.586 417.462 497.164 419.735 498.603 417.946C495.295 413.77 489.507 412.883 484.894 410.585C484.154 410.294 483.237 409.955 482.306 409.681L477.761 407.68L476.642 407.144L476.635 407.182L460.262 400.521C460.04 400.222 459.795 399.912 459.56 399.673L475.693 404.985L475.708 404.909C476.266 405.154 476.824 405.374 477.399 405.558L477.392 405.596L488.664 410.065C490.534 411.217 492.576 412.2 494.568 412.731C497.805 413.873 501.069 419.684 502.103 420.14C502.599 414.793 497.834 411.417 493.794 409.029C489.21 405.562 481.615 404.167 482.107 397.177C481.987 396.66 481.87 396.144 481.702 395.632L480.249 392.617L480.332 392.594C478.26 388.877 474.922 385.819 471.059 384.136C467.331 381.961 463.103 379.701 458.942 378.313C456.674 382.262 456.563 374.358 452.666 375.932C449.567 375.694 449.823 376.576 447.951 374.214L448.208 374.214ZM467.532 390.906C468.634 391.093 469.845 391.541 471.023 392.225C474.151 394.046 475.857 396.929 474.846 398.663C473.835 400.396 470.466 400.314 467.34 398.485C464.213 396.657 462.496 393.83 463.51 392.084C464.142 390.997 465.698 390.595 467.532 390.906Z" fill="#E91F63"/>
<path d="M466.591 399.038C469.725 401.043 473.309 401.039 474.595 399.029C475.881 397.019 474.383 393.764 471.248 391.759C468.114 389.754 464.531 389.758 463.245 391.768C461.959 393.778 463.457 397.033 466.591 399.038Z" fill="black"/>
<path fill-rule="evenodd" clip-rule="evenodd" d="M471.284 399.026C472.422 399.025 473.049 398.636 473.32 398.214C473.59 397.791 473.68 397.058 473.204 396.025C472.737 395.01 471.793 393.904 470.433 393.034C469.073 392.164 467.673 391.77 466.555 391.771C465.418 391.773 464.79 392.161 464.52 392.584C464.25 393.006 464.16 393.739 464.636 394.772C465.103 395.787 466.047 396.893 467.407 397.763C468.767 398.633 470.167 399.027 471.284 399.026ZM474.595 399.029C473.309 401.039 469.725 401.043 466.591 399.038C463.457 397.033 461.959 393.778 463.245 391.768C464.531 389.758 468.114 389.754 471.248 391.759C474.383 393.764 475.881 397.019 474.595 399.029Z" fill="white"/>
</svg>
